X:60
T:Kadril van Schaffen
C:Traditioneel
O:Vlaanderen
Z:Bert Van Vreckem <http://flanders.blackmill.net/music/> 2005-09-20
M:6/8
L:1/8
Q:3/8=112
K:C
T:Eerste figuur
[P:Voorspel] GAG|"C"C2E G2F|"G7"B,3 GAG|"G7"B2c d2B|"C"c2z .| [P:A] "G7"GAG|
segno|:"C"C2E G2F|"G7"B,2 GAG|"G7"B,2F A2G|"C"C3 GAG|"C"C2E G2F|
"G7"B,3 GAG|"G7"B2c d2B|[1"C"c2z "G7"GAG:|[2"C"c2 z .| [P:B] "C7"cdc|
[K:F]|:"Gm"B2A G2A|"C7"B2z BcB|"F"A2G F2G|"Dm"A2z ABA|"Gm"G2z A2z|
[1"C7"B2z =B2z|"Bb"d2c =B2d|"F"c2z cdc:|\
[2"C7"B2z G2z|"F"F2A c2A|"F"F2finez .| "G7"GAGsegno||
T:Tweede figuur
[K:C] [P:Voorspel] G^FG|"C"c2c E^DE|G2G "C7"G^FG|"F"A2c "G"B2d|"C"c2z .| [P:A] "G7"G^FG|
segno|:"C"c2c E^DE|G2G CB,C|"G"DEF A2G|E2z G^FG|"C"c2c E^DE|G2G G^FG|
[1"E"BAG "A7"AE^F|"G"G2z "G7"G^FG:|[2"G7"BAG GAB|"C"c2z .| [P:B] "C7"GBc|
|:"F"d2d "G7"A2B|"C"c2G GAG|"G7"FDF A2G|"C"E2z "C7"GBc|[1"F"d2d "G7"A2B|"C"c2G GAG|
BAB"D7"c2^F|G2z "C7"GBc:|[2"F"d2d c2d|"C"e2c G^FG|\
"F"A2c "G"B2d|"C"c2finez .| "G7"G^FGsegno||
T:Derde figuur
[P:Voorspel] C|"C"G^FG "F"A=FA|"C"G2E C2E|"D7"D2^D E2^F|"G"G3- Gz .| [P:A] "G7"C|
segno|:"C"G^FG "F"A=FA|"C"G2E C2E|"G7"F2D C2B,|"C"C2E Gz C|G^FG "F"A=FA|
"C"G2E C2E|[1"D7"D2^D E2^F|"G"G3- Gz "G7"C:|[2D2B "D7"AE^F|"G"G3 -Gz .| [P:B] G|
|:"F"A^GA dcB|"C"c2G Ez G|"G7"A2F EFG|"C"A2G Ez G|"F"A^GA dcB|
"C"c2G Ez G|[1"F"A^GA "D7"cBc|"G7"d3- dz G:|\
[2"F"AFA "G7"BGB|"C"c3- c2finez .| "G7"Csegno||
T:Vierde figuur
[M:2/4] [P:Voorspel] G|"C".c.c.c.B|.c.G zG|"F"A>F "G7"AB|"C"c2z .| [P:A]G|
segno"C".c.c.c.B|.c.G zG|"F"A>F Ac|"C"e2 ze|"D7".d.d.d.c|.d.d ze|d>cBA|"G7"G2 zG|
G>^FGA|B2 zB|B>^ABc|d2 zG|B>AGG|d>cBB|d>^cde|ez .| [P:B] GG|
